img/logo_onprimary.svg

<svg width="52" height="26" viewBox="0 0 52 26" fill="none" xmlns="http://www.w3.org/2000/svg">
<g clip-path="url(#clip0)">
<path d="M35.3557 0C33.5098 0 31.7396 0.733273 30.4343 2.03851C29.1291 3.34374 28.3958 5.11407 28.3958 6.95995C28.3958 12.4977 35.3557 15.5529 35.3557 15.5529C35.3557 15.5529 42.3155 12.4389 42.3155 6.95995C42.3152 5.11418 41.5818 3.34409 40.2767 2.03894C38.9715 0.733793 37.2014 0.000380452 35.3557 0ZM35.3557 10.0639C34.7662 10.0639 34.1899 9.88906 33.6997 9.56155C33.2096 9.23404 32.8277 8.76854 32.6021 8.22392C32.3765 7.67929 32.3174 7.08004 32.4324 6.50186C32.5474 5.92369 32.8313 5.39258 33.2481 4.97574C33.665 4.55891 34.1961 4.27505 34.7743 4.16004C35.3524 4.04504 35.9516 4.10402 36.4962 4.32961C37.0409 4.5552 37.5064 4.93728 37.8339 5.42743C38.1614 5.91758 38.3363 6.49386 38.3363 7.08336C38.3363 7.87385 38.0222 8.63192 37.4632 9.19088C36.9042 9.74984 36.1462 10.0639 35.3557 10.0639Z" fill="#FFDE3D"/>
<path d="M49.1935 0.327393H46.4081C45.9556 0.327393 45.5887 0.694251 45.5887 1.14679V16.0395C45.5887 16.4921 45.9556 16.8589 46.4081 16.8589H49.1935C49.6461 16.8589 50.0129 16.4921 50.0129 16.0395V1.14679C50.0129 0.694251 49.6461 0.327393 49.1935 0.327393Z" fill="white"/>
<path d="M10.5196 0.327393H8.15036C7.93305 0.327393 7.72473 0.413714 7.57106 0.567382C7.41739 0.721049 7.33107 0.929452 7.33107 1.14677V6.14354H4.20263V1.14677C4.20225 0.929321 4.11566 0.720921 3.96177 0.567294C3.80787 0.413668 3.59922 0.327392 3.38177 0.327393H1.01393C0.796613 0.327393 0.588298 0.413714 0.43463 0.567382C0.280963 0.721049 0.194641 0.929452 0.194641 1.14677V13.5999C0.195781 14.5193 0.561622 15.4008 1.21188 16.0508C1.86214 16.7008 2.74368 17.0662 3.6631 17.067H10.5196C10.7369 17.067 10.9454 16.9807 11.0991 16.827C11.2527 16.6733 11.3391 16.4649 11.3391 16.2476V1.14677C11.3391 0.929452 11.2527 0.721049 11.0991 0.567382C10.9454 0.413714 10.7369 0.327393 10.5196 0.327393ZM7.33107 13.6975H5.25736C4.97774 13.6971 4.70971 13.5859 4.51199 13.3882C4.31427 13.1905 4.20301 12.9224 4.20263 12.6428V9.51302H7.33107V13.6975Z" fill="white"/>
<path d="M51.0406 22.2531C47.3095 21.7494 44.8083 20.3875 43.3661 16.6564C43.1608 16.1284 42.9025 15.5314 42.0673 15.5314H40.3208C40.0024 15.5394 39.6962 15.6549 39.4518 15.8592C39.2074 16.0635 39.0392 16.3445 38.9748 16.6564C37.5254 20.6616 34.3827 22.1024 29.9987 22.1024H26.5346C26.1291 22.1017 25.7405 21.9402 25.4538 21.6535C25.167 21.3668 25.0056 20.9781 25.0048 20.5726V1.14667C25.0048 0.92935 24.9185 0.720947 24.7648 0.567279C24.6111 0.413611 24.4028 0.32729 24.1855 0.32729H21.7616C21.5443 0.32729 21.336 0.413611 21.1823 0.567279C21.0286 0.720947 20.9423 0.92935 20.9423 1.14667V5.94969H17.8197V1.14378C17.8197 0.926327 17.7333 0.717759 17.5797 0.563863C17.426 0.409967 17.2176 0.323378 17.0002 0.322998H14.5765C14.359 0.323378 14.1506 0.409967 13.997 0.563863C13.8434 0.717759 13.757 0.926327 13.757 1.14378V25.1791C13.757 25.3966 13.8434 25.6051 13.997 25.759C14.1506 25.9129 14.359 25.9995 14.5765 25.9999H17.0002C17.2176 25.9995 17.426 25.9129 17.5797 25.759C17.7333 25.6051 17.8197 25.3966 17.8197 25.1791V9.4368H20.9423V22.408C20.9454 23.3555 21.323 24.2635 21.993 24.9334C22.663 25.6034 23.5708 25.9811 24.5183 25.9841C24.5183 25.9841 31.4954 25.9439 32.0321 25.9439C33.7402 26.0796 35.4538 25.7599 36.9981 25.0175C38.5424 24.2751 39.8624 23.1366 40.8232 21.7179C41.0657 21.3921 41.2536 21.0807 41.2536 21.0807C41.2536 21.0807 41.4446 21.3849 41.6986 21.7179C42.7316 23.0531 44.0591 24.1316 45.5775 24.8694C47.0959 25.6072 48.7641 25.9843 50.4522 25.9713C50.6641 25.9834 50.8735 25.9206 51.0438 25.7939C51.2141 25.6672 51.3344 25.4846 51.3836 25.2781L51.7869 23.2863C51.8116 23.1688 51.8114 23.0475 51.7865 22.9301C51.7616 22.8127 51.7126 22.7019 51.6423 22.6046C51.5721 22.5073 51.4822 22.4257 51.3785 22.3652C51.2749 22.3047 51.1599 22.2665 51.0406 22.2531Z" fill="white"/>
</g>
<defs>
<clipPath id="clip0">
<rect width="52" height="26" fill="white"/>
</clipPath>
</defs>
</svg>

<svg xmlns="http://www.w3.org/2000/svg" width="52" height="26" fill="none" xmlns:v="https://vecta.io/nano"><g clip-path="url(#A)"><path d="M35.356 0a6.96 6.96 0 0 0-6.96 6.96c0 5.538 6.96 8.593 6.96 8.593s6.96-3.114 6.96-8.593A6.96 6.96 0 0 0 35.356 0zm0 10.064a2.98 2.98 0 0 1-2.754-1.84 2.98 2.98 0 0 1 .646-3.248 2.98 2.98 0 0 1 3.248-.646 2.98 2.98 0 0 1 1.84 2.754 2.98 2.98 0 0 1-2.981 2.981z" fill="#ffde3d"/><g fill="#fff"><path d="M49.194.327h-2.785a.82.82 0 0 0-.819.819V16.04a.82.82 0 0 0 .819.819h2.785a.82.82 0 0 0 .819-.819V1.147a.82.82 0 0 0-.819-.819zm-38.674 0H8.15a.82.82 0 0 0-.819.819v4.997H4.203V1.147a.82.82 0 0 0-.821-.819H1.014a.82.82 0 0 0-.819.819V13.6a3.47 3.47 0 0 0 3.468 3.467h6.857a.82.82 0 0 0 .819-.819V1.147a.82.82 0 0 0-.819-.819zm-3.189 13.37H5.257c-.28 0-.548-.112-.745-.309s-.309-.466-.309-.745v-3.13h3.128v4.184zm43.71 8.556c-3.731-.504-6.232-1.866-7.674-5.597-.205-.528-.464-1.125-1.299-1.125h-1.747a1.41 1.41 0 0 0-1.346 1.125c-1.449 4.005-4.592 5.446-8.976 5.446h-3.464a1.53 1.53 0 0 1-1.53-1.53V1.147a.82.82 0 0 0-.819-.819h-2.424a.82.82 0 0 0-.819.819V5.95H17.82V1.144A.82.82 0 0 0 17 .323h-2.424a.82.82 0 0 0-.819.821v24.035a.82.82 0 0 0 .819.821H17a.82.82 0 0 0 .82-.821V9.437h3.123v12.971a3.59 3.59 0 0 0 3.576 3.576l7.514-.04a9.69 9.69 0 0 0 8.791-4.226c.242-.326.43-.637.43-.637a9.59 9.59 0 0 0 .445.637 10.96 10.96 0 0 0 8.754 4.253.91.91 0 0 0 .592-.177c.171-.126.291-.309.34-.516l.403-1.992a.86.86 0 0 0-.747-1.034z"/></g></g><defs><clipPath id="A"><path fill="#fff" d="M0 0h52v26H0z"/></clipPath></defs></svg>
